svgs/solid/swords.svg

<svg xmlns="http://www.w3.org/2000/svg" viewBox="0 0 512 512"><!-- Font Awesome Pro 6.0.0-alpha2 by @fontawesome - https://fontawesome.com License - https://fontawesome.com/license (Commercial License) --><path d="M309.373 389.425L389.369 309.417L93.382 13.388L15.261 0.137C6.386 -1.113 -1.113 6.387 0.137 15.263L13.386 93.396L309.373 389.425ZM507.238 462.058L447.991 402.802L479.615 343.796C482.99 337.545 481.865 329.919 476.865 324.919L459.241 307.417C452.991 301.167 442.866 301.167 436.617 307.417L307.248 436.805C300.998 443.056 300.998 453.182 307.248 459.307L324.872 476.934C329.872 481.935 337.496 483.06 343.746 479.684L402.743 448.056L461.991 507.312C468.24 513.563 478.49 513.563 484.74 507.312L507.238 484.81C513.488 478.559 513.488 468.308 507.238 462.058ZM498.614 93.396L511.863 15.263C513.113 6.387 505.614 -1.113 496.739 0.137L418.618 13.388L278.624 153.402L358.62 233.41L498.614 93.396ZM153.38 278.664L100.007 332.045L75.258 307.292C69.009 301.042 58.884 301.042 52.759 307.292L35.135 324.919C30.135 329.919 29.01 337.545 32.385 343.796L64.009 402.802L4.762 462.058C-1.488 468.308 -1.488 478.559 4.762 484.81L27.26 507.312C33.51 513.563 43.76 513.563 50.009 507.312L109.257 448.056L168.254 479.684C174.504 483.06 182.128 481.935 187.128 476.934L204.627 459.307C210.877 453.057 210.877 442.931 204.627 436.805L180.003 412.053L233.376 358.672L153.38 278.664Z"/></svg>

<svg xmlns="http://www.w3.org/2000/svg" viewBox="0 0 512 512"><!-- Font Awesome Pro 5.15.1 by @fontawesome - https://fontawesome.com License - https://fontawesome.com/license (Commercial License) --><path d="M309.37 389.38l80-80L93.33 13.33 15.22.14C6.42-1.12-1.12 6.42.14 15.22l13.2 78.11 296.03 296.05zm197.94 72.68L448 402.75l31.64-59.03c3.33-6.22 2.2-13.88-2.79-18.87l-17.54-17.53c-6.25-6.25-16.38-6.25-22.63 0L307.31 436.69c-6.25 6.25-6.25 16.38 0 22.62l17.53 17.54a16 16 0 0 0 18.87 2.79L402.75 448l59.31 59.31c6.25 6.25 16.38 6.25 22.63 0l22.62-22.62c6.25-6.25 6.25-16.38 0-22.63zm-8.64-368.73l13.2-78.11c1.26-8.8-6.29-16.34-15.08-15.08l-78.11 13.2-140.05 140.03 80 80L498.67 93.33zm-345.3 185.3L100 332l-24.69-24.69c-6.25-6.25-16.38-6.25-22.62 0l-17.54 17.53a15.998 15.998 0 0 0-2.79 18.87L64 402.75 4.69 462.06c-6.25 6.25-6.25 16.38 0 22.63l22.62 22.62c6.25 6.25 16.38 6.25 22.63 0L109.25 448l59.03 31.64c6.22 3.33 13.88 2.2 18.87-2.79l17.53-17.54c6.25-6.25 6.25-16.38 0-22.62L180 412l53.37-53.37-80-80z"/></svg>
